Karasa Jaga/scalable/actions/document-open-recent-symbolic.svg

<?xml version="1.0" encoding="UTF-8" standalone="no"?>
<!-- Created with Inkscape (http://www.inkscape.org/) -->

<svg
   xmlns:dc="http://purl.org/dc/elements/1.1/"
   xmlns:cc="http://creativecommons.org/ns#"
   xmlns:rdf="http://www.w3.org/1999/02/22-rdf-syntax-ns#"
   xmlns:svg="http://www.w3.org/2000/svg"
   xmlns="http://www.w3.org/2000/svg"
   xmlns:sodipodi="http://sodipodi.sourceforge.net/DTD/sodipodi-0.dtd"
   xmlns:inkscape="http://www.inkscape.org/namespaces/inkscape"
   id="svg7384"
   height="16.072"
   width="16"
   version="1.1"
   inkscape:version="0.48.3.1 r9886"
   sodipodi:docname="appointment-soon-symbolic.svg">
  <defs
     id="defs13" />
  <sodipodi:namedview
     pagecolor="#ffffff"
     bordercolor="#666666"
     borderopacity="1"
     objecttolerance="10"
     gridtolerance="10"
     guidetolerance="10"
     inkscape:pageopacity="0"
     inkscape:pageshadow="2"
     inkscape:window-width="1366"
     inkscape:window-height="711"
     id="namedview11"
     showgrid="false"
     inkscape:zoom="10.383101"
     inkscape:cx="-0.86329979"
     inkscape:cy="0.77344178"
     inkscape:window-x="0"
     inkscape:window-y="0"
     inkscape:window-maximized="1"
     inkscape:current-layer="svg7384" />
  <metadata
     id="metadata90">
    <rdf:RDF>
      <cc:Work
         rdf:about="">
        <dc:format>image/svg+xml</dc:format>
        <dc:type
           rdf:resource="http://purl.org/dc/dcmitype/StillImage" />
        <dc:title>Gnome Symbolic Icon Theme</dc:title>
      </cc:Work>
    </rdf:RDF>
  </metadata>
  <title
     id="title9167">Gnome Symbolic Icon Theme</title>
  <path
     inkscape:connector-curvature="0"
     style="fill:#bebebe;fill-opacity:0.87785591;stroke:none"
     d="m 2.282479,0.69603844 c -0.074561,0 -0.1331421,0.0585835 -0.1331421,0.13314253 l 0,0.70755783 c 0,0.074559 0.058583,0.1331426 0.1331421,0.1331426 l 0.8407005,0 0,12.6599596 -0.7684227,0 c -0.1133522,0 -0.2054199,0.04604 -0.2054199,0.10271 l 0,0.768423 c 0,0.007 0.00113,0.01616 0.00385,0.02283 -0.00131,0.0022 -0.00385,0.0054 -0.00385,0.0076 0,0.0099 0.015912,0.02113 0.041845,0.03044 0.037154,0.02545 0.095455,0.04184 0.1635752,0.04184 l 0.068471,0 c 0.3380086,0.04236 0.9589483,0.07228 1.6814009,0.07228 l 7.7907448,0 c 0.722453,0 1.343392,-0.02991 1.681401,-0.07228 l 0.05325,0 c 0.06104,0 0.114738,-0.01317 0.152163,-0.03424 0.03916,-0.0113 0.06847,-0.02583 0.06847,-0.03803 0,-0.0062 -0.0085,-0.013 -0.01902,-0.01902 7.03e-4,-0.0035 0.0038,-0.0078 0.0038,-0.0114 l -7e-6,-0.76843 c 0,-0.05668 -0.09207,-0.10271 -0.20542,-0.10271 l -0.768423,0 0,-12.6599594 0.8407,0 c 0.07456,0 0.133143,-0.058583 0.133143,-0.1331426 l 0,-0.70755784 c 0,-0.0745586 -0.05858,-0.13314253 -0.133143,-0.13314253 l -11.4198311,0 z m 1.814544,0.97384296 0.9738426,0 0,0.6314764 0,0.2396563 c 0,0.056678 0.046038,0.1027099 0.10271,0.1027099 l 0.7303824,0 C 5.5548249,3.0261574 5.3447589,3.5657852 5.3447589,4.2870847 c 0,1.2805568 1.8721311,2.3059068 2.2215794,3.6100664 -0.2862272,1.0682155 -2.2215794,2.3545399 -2.2215794,3.6519119 0,0.768091 0.2307866,1.330735 0.6124563,1.723245 0.027265,0.02803 0.054895,0.0574 0.083689,0.08369 l -0.646692,0 c -0.092771,0 -0.1772865,0.03013 -0.2472657,0.07989 -0.1221058,0.01212 -0.1978119,0.0243 -0.1978119,0.03804 0,0.01031 0.051349,0.02097 0.1217306,0.03044 -0.065629,0.07522 -0.1065145,0.173377 -0.1065145,0.281501 l 0,0.543983 -0.8673281,0 0,-12.6599594 z m 6.816901,0 0.973842,0 0,12.6599596 -0.970038,0 0,-0.543983 c 0,-0.237286 -0.18877,-0.42986 -0.426057,-0.42986 l -0.464097,0 c 0.13601,-0.120144 0.2573,-0.255675 0.357583,-0.414645 -0.01072,-0.0032 -0.02328,-0.0083 -0.03423,-0.0114 0.0076,-0.01232 0.01549,-0.02549 0.02283,-0.03804 0.205947,-0.35253 0.323346,-0.794202 0.323346,-1.342839 0,-0.162171 -0.03091,-0.324395 -0.08369,-0.483117 C 10.244006,9.954909 8.7508962,8.9249011 8.4755158,7.8971689 c 0.021579,-0.080528 0.047174,-0.1609454 0.07989,-0.2396575 0.4906648,-1.180683 2.1416926,-2.1698881 2.1416936,-3.3704098 0,-0.7212995 -0.210066,-1.2609273 -0.5592,-1.6433597 l 0.673323,0 c 0.05668,-6.6e-6 0.10271,-0.046039 0.10271,-0.1027166 l 0,-0.8711328 z"
     id="path3950" />
</svg>

<?xml version="1.0" encoding="UTF-8" standalone="no"?>
<!-- Created with Inkscape (http://www.inkscape.org/) -->

<svg
   xmlns:dc="http://purl.org/dc/elements/1.1/"
   xmlns:cc="http://creativecommons.org/ns#"
   xmlns:rdf="http://www.w3.org/1999/02/22-rdf-syntax-ns#"
   xmlns:svg="http://www.w3.org/2000/svg"
   xmlns="http://www.w3.org/2000/svg"
   xmlns:sodipodi="http://sodipodi.sourceforge.net/DTD/sodipodi-0.dtd"
   xmlns:inkscape="http://www.inkscape.org/namespaces/inkscape"
   id="svg7384"
   height="16.072"
   width="16"
   version="1.1"
   inkscape:version="0.92.2 (unknown)"
   sodipodi:docname="document-open-recent-symbolic.svg">
  <defs
     id="defs13" />
  <sodipodi:namedview
     pagecolor="#ffffff"
     bordercolor="#666666"
     borderopacity="1"
     objecttolerance="10"
     gridtolerance="10"
     guidetolerance="10"
     inkscape:pageopacity="0"
     inkscape:pageshadow="2"
     inkscape:window-width="1366"
     inkscape:window-height="706"
     id="namedview11"
     showgrid="false"
     inkscape:zoom="16"
     inkscape:cx="5.3933366"
     inkscape:cy="7.9141648"
     inkscape:window-x="0"
     inkscape:window-y="0"
     inkscape:window-maximized="1"
     inkscape:current-layer="svg7384" />
  <metadata
     id="metadata90">
    <rdf:RDF>
      <cc:Work
         rdf:about="">
        <dc:format>image/svg+xml</dc:format>
        <dc:type
           rdf:resource="http://purl.org/dc/dcmitype/StillImage" />
        <dc:title>Gnome Symbolic Icon Theme</dc:title>
      </cc:Work>
    </rdf:RDF>
  </metadata>
  <title
     id="title9167">Gnome Symbolic Icon Theme</title>
  <path
     style="fill:#bebebe;fill-opacity:0.87785591;stroke:none"
     d="M 2.2832031 0.6953125 C 2.2086421 0.6953125 2.1484375 0.75551909 2.1484375 0.83007812 L 2.1484375 1.5371094 C 2.1484375 1.6116684 2.208644 1.6699219 2.2832031 1.6699219 L 3.1230469 1.6699219 L 3.1230469 14.330078 L 2.3554688 14.330078 C 2.2421165 14.330078 2.1484375 14.374971 2.1484375 14.431641 L 2.1484375 15.201172 C 2.1484375 15.208172 2.1496237 15.217939 2.1523438 15.224609 C 2.1510337 15.226809 2.1484375 15.228269 2.1484375 15.230469 C 2.1484375 15.240369 2.1654733 15.252409 2.1914062 15.261719 C 2.2285603 15.287169 2.2873486 15.302734 2.3554688 15.302734 L 2.4238281 15.302734 C 2.7618367 15.345094 3.3830161 15.375 4.1054688 15.375 L 11.894531 15.375 C 12.616984 15.375 13.238163 15.345104 13.576172 15.302734 L 13.630859 15.302734 C 13.691899 15.302734 13.743825 15.290601 13.78125 15.269531 C 13.82041 15.258231 13.851562 15.242669 13.851562 15.230469 C 13.851562 15.224269 13.842551 15.218911 13.832031 15.212891 C 13.832734 15.209391 13.835938 15.204772 13.835938 15.201172 L 13.835938 14.431641 C 13.835938 14.374961 13.744209 14.330078 13.630859 14.330078 L 12.861328 14.330078 L 12.861328 1.6699219 L 13.703125 1.6699219 C 13.777685 1.6699219 13.835937 1.611669 13.835938 1.5371094 L 13.835938 0.83007812 C 13.835938 0.75551952 13.777688 0.6953125 13.703125 0.6953125 L 2.2832031 0.6953125 z M 4.0976562 1.6699219 L 5.0703125 1.6699219 L 5.0703125 2.3007812 L 5.0703125 2.5410156 C 5.0703125 2.5976936 5.1171561 2.6445312 5.1738281 2.6445312 L 5.9042969 2.6445312 C 5.5551638 3.0269647 5.3457031 3.5658099 5.3457031 4.2871094 C 5.3457031 5.5676662 7.2169579 6.5923248 7.5664062 7.8964844 C 7.2801791 8.9646999 5.3457031 10.251456 5.3457031 11.548828 C 5.3457031 12.316919 5.5753615 12.878974 5.9570312 13.271484 C 5.9842962 13.299514 6.0122216 13.329179 6.0410156 13.355469 L 5.3945312 13.355469 C 5.3017603 13.355469 5.2164636 13.385787 5.1464844 13.435547 C 5.0243786 13.447667 4.9492188 13.460869 4.9492188 13.474609 C 4.9492188 13.484919 4.9999309 13.494436 5.0703125 13.503906 C 5.0046835 13.579126 4.9648438 13.677032 4.9648438 13.785156 L 4.9648438 14.330078 L 4.0976562 14.330078 L 4.0976562 1.6699219 z M 10.914062 1.6699219 L 11.888672 1.6699219 L 11.888672 14.330078 L 10.917969 14.330078 L 10.917969 13.785156 C 10.917969 13.54787 10.729475 13.355469 10.492188 13.355469 L 10.027344 13.355469 C 10.163354 13.235325 10.284483 13.100376 10.384766 12.941406 C 10.374046 12.938206 10.362513 12.932787 10.351562 12.929688 C 10.359163 12.917367 10.365707 12.905128 10.373047 12.892578 C 10.578994 12.540048 10.697266 12.097465 10.697266 11.548828 C 10.697266 11.386657 10.666061 11.225128 10.613281 11.066406 C 10.243874 9.9553583 8.7499898 8.9242166 8.4746094 7.8964844 C 8.4961884 7.8159564 8.5219715 7.7369152 8.5546875 7.6582031 C 9.0453523 6.4775201 10.697265 5.4876311 10.697266 4.2871094 C 10.697266 3.5658099 10.487806 3.0269636 10.138672 2.6445312 L 10.810547 2.6445312 C 10.867227 2.6445247 10.914063 2.5976932 10.914062 2.5410156 L 10.914062 1.6699219 z M 6.2988281 3.2695312 L 9.7441406 3.2695312 C 9.9175776 3.5169033 10.072266 3.7868059 10.072266 4.2871094 C 10.072265 4.6007046 9.7940724 5.0460259 9.3378906 5.5703125 C 8.8875349 6.0879032 8.315774 6.6466112 7.9960938 7.3945312 C 7.7032052 6.7055415 7.2195832 6.1530514 6.7929688 5.6699219 C 6.2924627 5.1031121 5.9707031 4.622954 5.9707031 4.2871094 C 5.9707031 3.7868063 6.125389 3.516907 6.2988281 3.2695312 z M 8.015625 8.3496094 C 8.2564332 8.9298252 8.6479039 9.4115158 9.0351562 9.859375 C 9.4900416 10.385452 9.8961438 10.892568 10.019531 11.263672 C 10.055523 11.371908 10.072266 11.466832 10.072266 11.548828 C 10.072266 12.006816 9.9771431 12.330541 9.8339844 12.576172 L 9.8339844 12.578125 C 9.8210738 12.600227 9.8152886 12.609706 9.8203125 12.601562 A 0.62506244 0.62506244 0 0 0 9.7675781 12.710938 C 9.7633308 12.716206 9.7582645 12.721341 9.7539062 12.726562 L 6.3671875 12.726562 C 6.142495 12.463226 5.9707031 12.137613 5.9707031 11.548828 C 5.9707031 11.210782 6.3220077 10.638344 6.8261719 10.039062 C 7.2617155 9.5213492 7.7408602 8.9991012 8.015625 8.3496094 z "
     id="path3950" />
</svg>
